!!!COM: Massaino, Tiburzio
!!!CDT:
!!!PTL: Madrigali a sei voci. Libro primo
!!!PPP: Venice
!!!PPR: Angelo Gardano
!!!PDT: 1604
!!!PUB-format:
!!!RISM: M 1294
!!!OTL: Bello e dolce morir fu certo allora
!!!AGN: Madrigal
!!!SCT: Tam3021430b
!!!SCA: Tam3021430b
!!!original-voices: 6
!!!extant-voices: 6
!!!complete: Y
!!!final: E
**kern	**text	**kern	**text	**kern	**text	**kern	**text	**kern	**text	**kern	**text
*part6	*part6	*part5	*part5	*part4	*part4	*part3	*part3	*part2	*part2	*part1	*part1
*staff6	*staff6	*staff5	*staff5	*staff4	*staff4	*staff3	*staff3	*staff2	*staff2	*staff1	*staff1
*I"Basso	*	*I"Sesto	*	*I"Tenor	*	*I"Alto	*	*I"Quinto	*	*I"Canto	*
*I'B	*	*I'VI	*	*I'T	*	*I'A	*	*I'V	*	*I'C	*
*oclefF4	*	*oclefC4	*	*oclefC4	*	*oclefC3	*	*oclefC1	*	*oclefC1	*
*clefF4	*	*clefGv2	*	*clefGv2	*	*clefG2	*	*clefG2	*	*clefG2	*
*k[]	*	*k[]	*	*k[]	*	*k[]	*	*k[]	*	*k[]	*
*C:	*	*C:	*	*C:	*	*C:	*	*C:	*	*C:	*
*omet(C)	*	*omet(C)	*	*omet(C)	*	*omet(C)	*	*omet(C)	*	*omet(C)	*
*M4/2	*	*M4/2	*	*M4/2	*	*M4/2	*	*M4/2	*	*M4/2	*
=1	=1	=1	=1	=1	=1	=1	=1	=1	=1	=1	=1
!!LO:TX:a:t=Seconda parte.
4E	Bel-	4B	Bel-	0r	.	4e	Bel-	4g#X	Bel-	4ee	Bel-
4A	-lo e	4c	-lo e	.	.	4e	-lo e	4a	-lo e	4cc	-lo e
2F	dol-	2c	dol-	.	.	2f	dol-	2a	dol-	2cc	dol-
4F	-ce	4c	-ce	.	.	4f	-ce	4a	-ce	4cc	-ce
4A	mo-	4c	mo-	.	.	4e	mo-	4a	mo-	4a	mo-
2E	-rir	2B	-rir	.	.	2e	-rir	2b	-rir	2g#X	-rir
=2	=2	=2	=2	=2	=2	=2	=2	=2	=2	=2	=2
4C	fu	4A	fu	1r	.	4e	fu	4cc	fu	4ee	fu
2C	cer-	2G	cer-	.	.	2g	cer-	2cc	cer-	2ee	cer-
4BB	-to al-	4B	-to al-	.	.	4g	-to al-	4g	-to al-	4dd	-to al-
4D	-ho-	4A	-ho-	2r	.	4f#X	-ho-	4a	-ho-	4dd	-ho-
4GG	-ra	4G	-ra	.	.	4g	-ra	4b	-ra	4dd	-ra
2r	.	2r	.	4c	Ch'uc-	4g	Ch'uc-	4ee	Ch'uc-	4cc	Ch'uc-
.	.	.	.	[4G	-ci-	[4g	-ci-	[4dd	-ci-	[4b	-ci-
=3	=3	=3	=3	=3	=3	=3	=3	=3	=3	=3	=3
1r	.	1r	.	8G]	.	8g]	.	8dd]	.	8b]	.
.	.	.	.	8F#X	-de-	8a	-de-	8dd	-de-	8a	-de-
.	.	.	.	8G	-re	8g	-re	8dd	-re	8b	-re
.	.	.	.	8E	mi	8g	mi	8ee	mi	8cc#X	mi
.	.	.	.	4D	vol-	4f#X	vol-	4a	vol-	4dd	vol-
.	.	.	.	4D	-si.	4f#i	-si,	4a	-si,	4dd	-si.
4A	Ch'uc-	4e	Ch'uc-	1r	.	4a	Ch'uc-	4cc	Ch'uc-	1r	.
4.E	-ci-	4.e	-ci-	.	.	4.g	-ci-	4.b	-ci-	.	.
8D	-de-	8f	-de-	.	.	8a	-de-	8a	-de-	.	.
8E	-re	8e	-re	.	.	8g	-re	8b	-re	.	.
8C	mi	8e	mi	.	.	8g	mi	8ee	mi	.	.
=4	=4	=4	=4	=4	=4	=4	=4	=4	=4	=4	=4
4AA	vol-	4e	vol-	2r	.	4a	vol-	4cc#X	vol-	2r	.
4AA	-si.	4e	-si.	.	.	4a	-si.	4cc#i	-si.	.	.
2r	.	2r	.	2d	Tu	2r	.	2r	.	4r	.
.	.	.	.	.	.	.	.	.	.	4dd	Tu
1r	.	1r	.	2.e	me'l	4r	.	2r	.	4dd	me'l
.	.	.	.	.	.	4g	Tu	.	.	4cc	ne-
.	.	.	.	.	.	4g	me'l	4r	.	[2b	-ga-
.	.	.	.	4d	ne-	4f	ne-	4dd	Tu	.	.
=5	=5	=5	=5	=5	=5	=5	=5	=5	=5	=5	=5
0r	.	0r	.	1e	-ga-	4e	-ga-	4dd	me'l	4b]	.
.	.	.	.	.	.	4A	-sti,	4cc	ne-	4a	.
.	.	.	.	.	.	4r	.	2b	-ga-	4b	-sti,
.	.	.	.	.	.	4g	Tu	.	.	2ee	Tu
.	.	.	.	1A	-sti,	4g	me'l	2a	-sti,	.	.
.	.	.	.	.	.	4f	ne-	.	.	2dd	me'l
.	.	.	.	.	.	[2e	-ga-	4r	.	.	.
.	.	.	.	.	.	.	.	[4ee	Tu	4cc	ne-
=6	=6	=6	=6	=6	=6	=6	=6	=6	=6	=6	=6
1r	.	2r	.	0r	.	1e]	.	4ee]	.	4b	-ga-
.	.	.	.	.	.	.	.	8dd	me'l	2a	.
.	.	.	.	.	.	.	.	8cc	ne-	.	.
.	.	2E	E'l	.	.	.	.	2b	-ga-	.	.
.	.	.	.	.	.	.	.	.	.	4g#X	.
2r	.	1e	ciel,	.	.	2A	-sti,	2cc#X	-sti,	4a	-sti,
.	.	.	.	.	.	.	.	.	.	4a	e'l
2A	E'l	.	.	.	.	4r	.	4r	.	2ee	ciel,
.	.	.	.	.	.	4c	e'l	4a	e'l	.	.
=7	=7	=7	=7	=7	=7	=7	=7	=7	=7	=7	=7
1c	ciel,	2r	.	2r	.	2g	ciel,	1ee	ciel,	2r	.
.	.	2G	a	2C	a	4r	.	.	.	2cc	a
.	.	.	.	.	.	4c	a	.	.	.	.
1r	.	4G	cui	4G	cui	4d	cui	1r	.	4b	cui
.	.	4G	pa-	4E	pa-	4e	pa-	.	.	4cc#X	pa-
.	.	4A	-re-	4D	-re-	4f	-re-	.	.	4dd	-re-
.	.	8A	-a	8D	-a	8f	-a	.	.	8dd	-a
.	.	8G	Ch'io	8G	Ch'io	8d	Ch'io	.	.	8b	Ch'io
=8	=8	=8	=8	=8	=8	=8	=8	=8	=8	=8	=8
0r	.	4A	pre-	4F#X	pre-	4a	pre-	0r	.	4dd	pre-
.	.	4B	-cor-	4G	-cor-	4g	-cor-	.	.	4b	-cor-
.	.	4c	-res-	4A	-res-	4e	-res-	.	.	4a	-res-
.	.	4d	-si	4B-X	-si	4d	-si	.	.	4g	-si
.	.	4.e	col	4.A	col	4.c#X	col	.	.	4.a	col
.	.	8f	mo-	8d	mo-	8d	mo-	.	.	8a	mo-
.	.	2e	-rir	4c#X	-rir	4e	-rir	.	.	4a	-rir
.	.	.	.	4e	la	4g	la	.	.	4b	la
=9	=9	=9	=9	=9	=9	=9	=9	=9	=9	=9	=9
0r	.	0r	.	2f	noi-	4a	noi-	1r	.	2dd	noi-
.	.	.	.	.	.	4a	-a	.	.	.	.
.	.	.	.	2e	-a	8g	Ch'ap-	.	.	2cc	-a
.	.	.	.	.	.	8g	-pre-	.	.	.	.
.	.	.	.	.	.	2f	-sta-	.	.	.	.
.	.	.	.	8d	Ch'ap-	.	.	2r	.	8b	Ch'ap-
.	.	.	.	8d	-pre-	.	.	.	.	8b	-pre-
.	.	.	.	2c	-sta-	8e	-ta	.	.	2a	-sta-
.	.	.	.	.	.	8d	m'a-	.	.	.	.
.	.	.	.	.	.	4e	-ve-	8a	Ch'ap-	.	.
.	.	.	.	.	.	.	.	8a	-pre-	.	.
.	.	.	.	8B	-ta	4d	-a,	[4g	-sta-	8dd	-ta
.	.	.	.	8A	m'a-	.	.	.	.	8cc	m'a-
=10	=10	=10	=10	=10	=10	=10	=10	=10	=10	=10	=10
0r	.	1r	.	1d	-ve-	0r	.	4g]	.	4b	-ve-
.	.	.	.	.	.	.	.	8f	-ta	8aL	.
.	.	.	.	.	.	.	.	8e	m'a-	8gJ	.
.	.	.	.	.	.	.	.	2.f	-ve-	2a	.
.	.	8d	Ch'ap-	1G	-a,	.	.	.	.	1g	-a,
.	.	8d	-pre-	.	.	.	.	.	.	.	.
.	.	2c	-sta-	.	.	.	.	4e	.	.	.
.	.	.	.	.	.	.	.	[2d	.	.	.
.	.	8B	-ta	.	.	.	.	.	.	.	.
.	.	8A	m'a-	.	.	.	.	.	.	.	.
=11	=11	=11	=11	=11	=11	=11	=11	=11	=11	=11	=11
0r	.	1f	-ve-	0r	.	8a	Ch'ap-	4d]	.	8dd	Ch'ap-
.	.	.	.	.	.	8a	-pre-	.	.	8dd	-pre-
.	.	.	.	.	.	2a	-sta-	4A	-a,	2cc	-sta-
.	.	.	.	.	.	.	.	2r	.	.	.
.	.	.	.	.	.	8g	-ta	.	.	8b	-ta
.	.	.	.	.	.	8f	m'a-	.	.	8a	m'a-
.	.	1e	-a.	.	.	4g	-ve-	1r	.	1b	-ve-
.	.	.	.	.	.	2a	.	.	.	.	.
.	.	.	.	.	.	4g#X	.	.	.	.	.
=12	=12	=12	=12	=12	=12	=12	=12	=12	=12	=12	=12
1r	.	0r	.	1r	.	0a	-a.	8ee	<Ch'ap-	4cc	.
.	.	.	.	.	.	.	.	8ee	-pre-	.	.
.	.	.	.	.	.	.	.	2dd	-sta-	4dd	.
.	.	.	.	.	.	.	.	.	.	2ee	-a,
.	.	.	.	.	.	.	.	8cc	-ta	.	.
.	.	.	.	.	.	.	.	8b	m'a-	.	.
8A	Ch'ap-	.	.	8c	Ch'ap-	.	.	4cc	-ve-	2r	.
8A	-pre-	.	.	8c	-pre-	.	.	.	.	.	.
2G	-sta-	.	.	2B	-sta-	.	.	4dd	-a,>	.	.
.	.	.	.	.	.	.	.	2r	.	8ee	<Ch'ap-
.	.	.	.	.	.	.	.	.	.	8ee	-pre-
8F	-ta	.	.	8A	-ta	.	.	.	.	[4dd	-sta-
8E	m'a-	.	.	8G	m'a-	.	.	.	.	.	.
=13	=13	=13	=13	=13	=13	=13	=13	=13	=13	=13	=13
4F	-ve-	1r	.	4.d	-ve-	0r	.	8a	Ch'ap-	4dd]	.
.	.	.	.	.	.	.	.	8a	-pre-	.	.
4G	.	.	.	.	.	.	.	2g	-sta-	8cc	-ta
.	.	.	.	8e	.	.	.	.	.	8b	m'a-
4.A	.	.	.	4.c	.	.	.	.	.	2cc	-ve-
.	.	.	.	.	.	.	.	8f	-ta	.	.
8C	.	.	.	8e	.	.	.	8e	m'a-	.	.
2D	.	2r	.	4d	.	.	.	2f	-ve-	4b	.
.	.	.	.	4c	.	.	.	.	.	2a	.
2E	.	4B	Or	2B	.	.	.	2e	-a.	.	.
.	.	4B	che	.	.	.	.	.	.	4g#X	.
=14	=14	=14	=14	=14	=14	=14	=14	=14	=14	=14	=14
0AA	-a.	2c#X	fat-	0A	-a.	4e	Or	1r	.	1a	-a.>
.	.	.	.	.	.	4e	che	.	.	.	.
.	.	1d	-to a	.	.	2f	fat-	.	.	.	.
.	.	.	.	.	.	4e	-to a	2r	.	2r	.
.	.	.	.	.	.	4e	l'e-	.	.	.	.
.	.	2c#X	l'e-	.	.	[2a	-stre-	4e	Or	4a	Or
.	.	.	.	.	.	.	.	4e	che	4a	che
=15	=15	=15	=15	=15	=15	=15	=15	=15	=15	=15	=15
2r	.	2d	-stre-	1r	.	2a]	.	2f	fat-	2b	fat-
4E	Or	2e	-mo	.	.	2g#X	-mo,	4e	-to a	1cc	-to a
4E	che	.	.	.	.	.	.	4e	l'e-	.	.
2F#X	fat-	2A	Del-	2r	.	1r	.	2a	-stre-	.	.
[2G	-to a	2d	-la	4B	Or	.	.	2g	-mo,	2b	l'e-
.	.	.	.	4B	che	.	.	.	.	.	.
=16	=16	=16	=16	=16	=16	=16	=16	=16	=16	=16	=16
2G]	.	2e	sua	2c#X	fat-	1r	.	2r	.	1a	-stre-
2F#X	l'e-	4A	cru-	2.d	-to a	.	.	4a	<Or	.	.
.	.	4d	-del-	.	.	.	.	4a	che	.	.
2G	-stre-	2B	-ta-	.	.	2r	.	2b	fat-	2g	-mo,
.	.	.	.	4e	l'e-	.	.	.	.	.	.
2A	-mo	2A	-te,	[2e	-stre-	4e	Or	[2cc	-to a	2r	.
.	.	.	.	.	.	4e	che	.	.	.	.
=17	=17	=17	=17	=17	=17	=17	=17	=17	=17	=17	=17
1D	Del-	0r	.	2e]	.	2f#X	fat-	2cc]	.	0r	.
.	.	.	.	2d	-mo	1g	-to a	2b	l'e-	.	.
2.A	-la	.	.	2e	Del-	.	.	1cc	-stre-	.	.
.	.	.	.	4c	-la	2f#X	l'e-	.	.	.	.
4A	sua	.	.	4A	sua	.	.	.	.	.	.
=18	=18	=18	=18	=18	=18	=18	=18	=18	=18	=18	=18
1.G	cru-	0r	.	2d	cru-	1g	-stre-	1b	-mo>	2r	.
.	.	.	.	2B	-del-	.	.	.	.	4b	<Or
.	.	.	.	.	.	.	.	.	.	4b	che
.	.	.	.	1A	-ta-	1a	-mo,	2r	.	2cc#X	fat-
2F#X	-del-	.	.	.	.	.	.	2a	Del-	[2dd	-to a
=19	=19	=19	=19	=19	=19	=19	=19	=19	=19	=19	=19
[0A	-ta-	0r	.	1e	-te,	2r	.	1.a	-la	2dd]	.
.	.	.	.	.	.	4e	Or	.	.	2cc#X	l'e-
.	.	.	.	.	.	4e	che	.	.	.	.
.	.	.	.	1r	.	2f#X	fat-	.	.	1dd	-stre-
.	.	.	.	.	.	[2g	-to a	2b	sua	.	.
=20	=20	=20	=20	=20	=20	=20	=20	=20	=20	=20	=20
1A]	.	1r	.	0r	.	2g]	.	1cc	cru-	2ee	-mo>
.	.	.	.	.	.	2f#X	l'e-	.	.	2a	Del-
[1E	-te,	1e	Del-	.	.	4g#X	-stre-	1b	-del-	1b	-la
.	.	.	.	.	.	2a	.	.	.	.	.
.	.	.	.	.	.	4g#X	.	.	.	.	.
=21	=21	=21	=21	=21	=21	=21	=21	=21	=21	=21	=21
0E_	.	2e	-la	0r	.	2a	-mo	2a	-ta-	2cc#X	sua
.	.	2B	sua	.	.	2d	Del-	2.b	.	1dd	cru-
.	.	2.c	cru-	.	.	4e	-la	.	.	.	.
.	.	.	.	.	.	4e	sua	4a	.	.	.
.	.	.	.	.	.	4e	cru-	[2a	.	2ccnXi	-del-
.	.	4A	-del-	.	.	4e	-del-	.	.	.	.
=22	=22	=22	=22	=22	=22	=22	=22	=22	=22	=22	=22
1E]	.	1B	-ta-	1r	.	1e	-ta-	2a]	.	1b	-ta-
.	.	.	.	.	.	.	.	2g#X	.	.	.
1r	.	2A	-te,	2r	.	2c#X	-te,	2a	-te,	2ee	-te,
.	.	2r	.	4E	Ben	8r	.	8r	.	8r	.
.	.	.	.	.	.	8g	Ben	8ee	Ben	8cc	Ben
.	.	.	.	[4G	sof-	8g	sof-	[4dd	sof-	[4b	sof-
.	.	.	.	.	.	8f	-fri-	.	.	.	.
=23	=23	=23	=23	=23	=23	=23	=23	=23	=23	=23	=23
1r	.	1r	.	8G]	.	4.e	-rà	8dd]	.	8b]	.
.	.	.	.	8A	-fri-	.	.	8cc	-fri-	8a	-fri-
.	.	.	.	8E	-rà	.	.	8b	-rà	8g#X	-rà
.	.	.	.	8D	ch'io	8f	ch'io	8dd	ch'io	8a	ch'io
.	.	.	.	4E	moi-	4e	moi-	4cc	moi-	4a	moi-
.	.	.	.	4E	-a,	4e	-a,	4b	-a,	4g#X	-a,
8C	Ben	8G	Ben	8c	<Ben	8e	<Ben	2r	.	2r	.
8C	sof-	8G	sof-	8c	sof-	8e	sof-	.	.	.	.
8C	-fri-	8G	-fri-	8c	-fri-	8e	-fri-	.	.	.	.
4GG	-rà	4G	-rà	4B	-rà	4d	-rà	.	.	.	.
.	.	.	.	.	.	.	.	2e	E	4r	.
8AA	ch'io	8E	ch'io	8A	ch'io	8c	ch'io	.	.	.	.
8EE	moi-	8E	moi-	8G#X	moi-	8B	moi-	.	.	4b	E
8EE	-a,	8E	-a,	8G#i	-a,>	8B	-a,>	.	.	.	.
=24	=24	=24	=24	=24	=24	=24	=24	=24	=24	=24	=24
1r	.	0r	.	2r	.	2A	E	1.a	tu	1.cc	tu
.	.	.	.	2A	E	2e	tu,	.	.	.	.
2r	.	.	.	[1e	tu	1r	.	.	.	.	.
2E	E	.	.	.	.	.	.	[2g	sof-	2b	sof-
=25	=25	=25	=25	=25	=25	=25	=25	=25	=25	=25	=25
1.A	tu	0r	.	2e]	.	1r	.	2g]	.	2a	-frir
.	.	.	.	2d	sof-	.	.	2.f	-frir	2b	lo
.	.	.	.	2c	-frir	2r	.	.	.	[1cc	de-
.	.	.	.	.	.	.	.	4e	lo	.	.
2G	sof-	.	.	2B	lo	2e	E	[2e	de-	.	.
=26	=26	=26	=26	=26	=26	=26	=26	=26	=26	=26	=26
1F	-frir	1r	.	2A	de-	1.a	tu	4e]	.	2cc]	.
.	.	.	.	.	.	.	.	4d	.	.	.
.	.	.	.	2D	-i,	.	.	2.d	.	4b	.
.	.	.	.	.	.	.	.	.	.	4a	.
2E	lo	2r	.	1r	.	.	.	.	.	2b	.
.	.	.	.	.	.	.	.	4c#X	.	.	.
[2E	de-	2G	E	.	.	2g	sof-	2c#i	.	2e	-i,
=27	=27	=27	=27	=27	=27	=27	=27	=27	=27	=27	=27
2E]	.	2.A	tu	1r	.	1f	-frir	1d	-i,	2r	.
2D	.	.	.	.	.	.	.	.	.	2a	lo
.	.	4B	sof-	.	.	.	.	.	.	.	.
1E	-i,	2c	-frir	2r	.	2e	lo	2r	.	2a	de-
.	.	2B	lo	2E	E	[2e	de-	2b	E	2g#X	.
=28	=28	=28	=28	=28	=28	=28	=28	=28	=28	=28	=28
0AA	<E	2.A	de-	1.A	tu	2e]	.	2cc#X	tu	0a	-i,
.	.	.	.	.	.	2d	.	1dd	sof-	.	.
.	.	8GL	.	.	.	.	.	.	.	.	.
.	.	8FJ	.	.	.	.	.	.	.	.	.
.	.	2E	.	.	.	1e	-i,	.	.	.	.
.	.	2E	-i,	2G	sof-	.	.	[2ccnXi	-frir	.	.
=29	=29	=29	=29	=29	=29	=29	=29	=29	=29	=29	=29
1.D	tu	0r	.	1F	-frir	2A	E	2cc]	.	0r	.
.	.	.	.	.	.	2d	tu,	1b	lo	.	.
.	.	.	.	2E	lo	2r	.	.	.	.	.
2C	sof-	.	.	[2E	de-	2A	E	[2a	de-	.	.
=30	=30	=30	=30	=30	=30	=30	=30	=30	=30	=30	=30
1BB	-frir	2r	.	2E]	.	1.d	tu	2a]	.	0r	.
.	.	2B	E	2D	.	.	.	2g#X	.	.	.
1AA	lo	[1e	tu	[1E	-i,	.	.	1a	-i,	.	.
.	.	.	.	.	.	2c	sof-	.	.	.	.
=31	=31	=31	=31	=31	=31	=31	=31	=31	=31	=31	=31
1GG#X	de-	2e]	.	0E]	.	1B	-frir	1r	.	2r	.
.	.	2d	sof-	.	.	.	.	.	.	2b	E
2AA	-i,>	1c	-frir	.	.	2A	lo	2r	.	[1ee	tu
2AA	E	.	.	.	.	[2A	de-	2a	E	.	.
=32	=32	=32	=32	=32	=32	=32	=32	=32	=32	=32	=32
2E	tu	2B	lo	2r	.	4A]	.	1b	tu	2ee]	.
.	.	.	.	.	.	4G#X	.	.	.	.	.
2BB	sof-	1B	de-	2B	E	2G#i	.	.	.	2dd	sof-
2.C	-frir	.	.	[1e	tu	1A	-i,	2r	.	1cc	-frir
.	.	2A	.	.	.	.	.	2ee	sof-	.	.
4AA	lo	.	.	.	.	.	.	.	.	.	.
=33	=33	=33	=33	=33	=33	=33	=33	=33	=33	=33	=33
1.E	de-	2B	-i,	2e]	.	2.G#X	sof-	0ee	-frir,	2b	lo
.	.	2B	E	2d	sof-	.	.	.	.	1b	de-
.	.	.	.	.	.	2A	-fir	.	.	.	.
.	.	2e	tu	1c	-frir	.	.	.	.	.	.
.	.	.	.	.	.	4G#i	lo	.	.	.	.
2F#X	.	4r	.	.	.	2A	de-	.	.	2a	.
.	.	4A	sof-	.	.	.	.	.	.	.	.
=34	=34	=34	=34	=34	=34	=34	=34	=34	=34	=34	=34
2G#X	.	[0E	-frir	2B	lo	2e	-i,	2r	.	2b	-i,
1A	.	.	.	2A	de-	2e	sof-	2ee	E	2cc	E
.	.	.	.	2.B	.	1e	-frir	2ee	tu	1b	tu
4G#i	.	.	.	.	.	.	.	2b	sof-	.	.
4F	.	.	.	4A	.	.	.	.	.	.	.
=35	=35	=35	=35	=35	=35	=35	=35	=35	=35	=35	=35
1E	.	1E]	.	4G#X	.	2e	lo	2cc#X	-frir	4r	.
.	.	.	.	2A	.	.	.	.	.	4ee	sof-
.	.	.	.	.	.	1e	de-	2cc#i	lo	4ee	-frir
.	.	.	.	4G#i	.	.	.	.	.	4ee	lo
1F	.	4r	.	1A	.	.	.	1dd	de-	1a	de-
.	.	4A	lo	.	.	.	.	.	.	.	.
.	.	2A	de-	.	.	2d	.	.	.	.	.
=36	=36	=36	=36	=36	=36	=36	=36	=36	=36	=36	=36
00El	-i.	00G#Xl	-i.	00Bl	-i.	00el	-i.	00bl	-i.	00eel	-i.
==	==	==	==	==	==	==	==	==	==	==	==
*-	*-	*-	*-	*-	*-	*-	*-	*-	*-	*-	*-
!!!system-decoration: [*]
!!!RDF**kern: i = editorial accidental
!!!RDF**kern: l = terminal long
!!!ENC: Emiliano Ricciardi
!!!END: 2019/01/06
!!!EED: Coluzzi, Seth
!!!EEV: 2019/01/21
!!!YEC: Copyright 2018 Emiliano Ricciardi, All Rights Reserved
!!!ONB: Translated from MusicXML on 2019/01/21
!!@@BEGIN:	VERSEDATA
!!@CATALOGNUM:	Tam3021430
!!@LAST_MODIFIED: 2020/07/12
!!@ACT:         III
!!@SCENE:       2
!!@VERSE:       1430
!!@TITLE:       Bello e dolce morir mi fu certo allora
!!@MANUSRC:	A-Am, A-Au, A-Br, A-CM, A-F, A-Ub
!!@PRINTSRC:	A-1580D, A-1580M, A-1581B, A-1581B<sub>bis</sub>, A-1581M, A-1581M<sub>bis</sub>, A-1581O, A-1581V, A-1582B, A-1583M, A-1583V, A-1584A, A-1585C, A-1585V, A-1585V<sub>bis</sub>, A-1588B, A-1589M, A-1589V, A-1590Mb, A-1590Mv, A-1591M, A-1591W, A-1592B, A-1596B, A-1596M, A-1599Bf, A-1599Bp, A-1600R, A-1601Bf, A-1601Bp, A-1602B, A-1603Bf, A-1603Bv, A-1603Z, A-1605R, A-1606Z, A-1608D, A-1608DP, A-1609Bf, A-1609Bv, A-1609Z, A-1611D, A-1614GT, A-1617D, A-1618B, A-1619D, A-1619I, A-1620V, A-1622D, A-1623A, A-1624M, A-1624S, A-1624T, A-1625U, A-1628U, A-1632D, A-1634R
!!@@BEGIN:	VERSES
!!@ABOUTIT:	
!!@ABOUTEN:	
!!@EDITOR:	Solerti, Angelo
!!@EDITION_TITLE: Opere minori in versi di Torquato Tasso. Edizione critica sugli autografi e sulle antiche stampe.
!!@EDITION_LOC:	Bologna
!!@EDITION_PUB:	Zanichelli
!!@EDITION_DATE:  1895
!!@EDITION_VOL:	3
!!@EDITION_PAGE:
!!@TRANSLATOR:	Emiliano Ricciardi and Amyrose McCue Gill
!!@VERSE:	
!!	Bello e dolce morir fu certo all'hora
!!	Ch'uccider io mi volsi.
!!	Tu me 'l negasti e '1 Cielo, a cui parea
!!	Ch'io precoressi co 'l morir la noia
!!	Ch'apprestata m'havea.
!!	Or che fatto ha l'estremo
!!	De la sua crudeltade,
!!	Ben soffrirà ch'io moia,
!!	E tu soffrir lo déi.
!!@TVERSE:
!!	[So] Beautiful and sweet it certainly was to die at that time
!!	That I wished to kill myself.
!!	You denied to me [death] and Heaven, to which it seemed
!!	That I would have forestalled with my death the trouble
!!	That it had lent me.
!!	Now that she has accomplished the extremity
!!	Of her cruelty,
!!	She will suffer greatly should I die,
!!	And you must endure it.
!!@@END:		VERSES
!!@NEW_CRIT_ED:   Torquato Tasso, <i>Aminta. "Princeps."</i>, ed. Matteo Navone, vol. 9 of Commissione Nazionale per l'Edizione delle opere del Tasso. Studi e Testi (Alessandria: Edizioni dell'Orso, 2014).
!!@ATTRIBUTION_ABOUT:	
!!@DATING:	1573
!!@DEDICATEE:	
!!@COMMENTARY:
!!@@END:		VERSEDATA
!!@@BEGIN: SETTING
!!@CATALOGNUM:	Tam3021430b
!!@ACT:		III
!!@SCENE:		2
!!@VERSE:		1430
!!@TITLE:		Bello e dolce morir fu certo allora
!!@SETTINGTITLE: Bello e dolce morir fu certo alhora
!!@COMPOSER:	Massaino, Tiburzio
!!@PRINCEPSTITLE:	Madrigali a sei voci. Libro primo
!!@PRINCEPSLOC:	Venice
!!@NORMLOC:	Venice
!!@NORMPUB:	Angelo Gardano
!!@NORMPUBSHORT:	Gardano
!!@PRINCEPSPUB:	Angelo Gardano
!!@PRINCEPSYEAR:	1604
!!@PRINCEPSRISM:	M 1294
!!@OVOICES:	6
!!@EXTANTVOICES:	6
!!@OMENSURATION:	C
!!@OCLEFS:	C1,C1,C3,C4,C4,F4
!!@OTIME:		
!!@OKEYSIG:	-
!!@FINAL:		E
!!@TIMPEDITOR:	Coluzzi, Seth
!!@PARTS:		2 of 2
!!@REPRINTS:	
!!@@END: SETTING
